X: 1
T: Sinclair's Jig
C: Jennifer Wrigley
O: Orkney, Scotland
%D:
R: jig
S: Fiddle Hell Online 2022-4-10 handout for Jennifer Wrigley's workshop
Z: 2022 John Chambers <jc:trillian.mit.edu>
M: 6/8
L: 1/8
K: Bb
"^A"|:\
{A}vBFD FBd | {d}e2(uc B)df | (vg^fg) e=fg | f2(uf d)BF || {D}vE3 GFE | "_>"F2(uf d)BF |
GFE FAc | BcA [1 {A}uB3 :|[2 Bvduf "^B"|: (vg^fg) e=fug | ({=e}vf=ef) d_ef | (uMede) (vMdcd) |
(ucd)B AGuF || {D}"_>"vE.G.B .e.g.b | {=e}"^>"vf.d.B F.D.B, | GFE FAc | BcA [1 Bvduf :|[2 uB zHv[BDB,] |]
